RestoDelMundo/Suecia/Otras Categorias/Matfors If.svg

<svg xmlns="http://www.w3.org/2000/svg" viewBox="0 0 660 660"><path fill="#ffe600" d="m444.805 29.13-93.591 104.823H318.67c-7.537-8.438-93.592-104.823-93.592-104.823H29.115v611.655h611.654V29.13z"/><path fill="#2e3192" d="M626.947 626.962V42.954H450.994l-93.59 104.821h-44.923L218.889 42.954H42.938v584.008Z"/><path fill="#fff" d="M57.913 340.574v271.414h554.059V340.574H450.994v-121.67H218.889v121.67Z"/><path fill="#2e3192" d="M162.735 351.803h84.231v248.952h-84.231ZM357.404 351.803h179.694v61.77H422.917v52.413h61.771v56.154h-61.771v78.615h-65.513Z"/></svg>

<svg enable-background="new 0 0 660 660" viewBox="0 0 660 660" xmlns="http://www.w3.org/2000/svg"><path d="M 444.805 29.13 c 0 0 -86.058 96.385 -93.591 104.823 c -7.73 0 -24.813 0 -32.544 0 c -7.537 -8.438 -93.592 -104.823 -93.592 -104.823 H 29.115 v 611.655 h 611.654 V 29.13 H 444.805 z" fill="#ffe600"/><path d="M 626.947 626.962 L 626.947 42.954 L 450.994 42.954 L 357.404 147.775 L 312.481 147.775 L 218.889 42.954 L 42.938 42.954 L 42.938 626.962 Z" fill="#2e3192"/><path d="M 57.913 340.574 L 57.913 611.988 L 611.972 611.988 L 611.972 340.574 L 450.994 340.574 L 450.994 218.904 L 218.889 218.904 L 218.889 340.574 Z" fill="#fff"/><path d="M 162.735 351.803 H 246.966 V 600.755 H 162.735 Z" fill="#2e3192"/><path d="M 357.404 351.803 L 537.098 351.803 L 537.098 413.573 L 422.917 413.573 L 422.917 465.986 L 484.688 465.986 L 484.688 522.14 L 422.917 522.14 L 422.917 600.755 L 357.404 600.755 Z" fill="#2e3192"/></svg>
